_inc/niztech_logo.svg

<?xml version="1.0" encoding="utf-8"?>
<!-- Generator: Adobe Illustrator 17.0.0, SVG Export Plug-In . SVG Version: 6.00 Build 0)  -->
<!DOCTYPE svg PUBLIC "-//W3C//DTD SVG 1.1//EN" "http://www.w3.org/Graphics/SVG/1.1/DTD/svg11.dtd">
<svg version="1.1" id="Layer_1" xmlns="http://www.w3.org/2000/svg" xmlns:xlink="http://www.w3.org/1999/xlink" x="0px" y="0px"
	 width="100px" height="100px" viewBox="0 0 100 100" enable-background="new 0 0 100 100" xml:space="preserve">
<g>
	<g>
		<path fill="#F9F9F9" d="M50,4.673c25.033,0,45.327,20.294,45.327,45.327S75.033,95.327,50,95.327S4.673,75.033,4.673,50
			S24.967,4.673,50,4.673 M50,0C22.43,0,0,22.43,0,50s22.43,50,50,50s50-22.43,50-50S77.57,0,50,0L50,0z"/>
	</g>
	<path fill="#F9F9F9" d="M69.466,46.021C64.93,47.331,57.409,40.583,50,32.968c-6.928-7.405-13.824-13.335-18.367-10.102
		c-1.193,0.635-3.304,3.08-4.215,6.423c-1.052,3.198-0.976,7.294-0.976,7.894c0,4.714,0,25.487,0,25.487
		c0,0.533,0.134-0.399,0.699-2.69c0.562-2.112,1.599-5.583,3.38-6.001c4.536-1.309,12.063,5.438,19.472,13.053
		c6.928,7.406,13.828,13.336,18.371,10.103c1.193-0.635,3.247-3.08,4.158-6.423c1.052-3.198,0.919-7.294,0.919-7.894
		c0-4.714,0-25.487,0-25.487c0-0.533-0.076,0.399-0.641,2.69C72.239,42.132,71.247,45.603,69.466,46.021z"/>
</g>
</svg>

<?xml version="1.0" encoding="UTF-8"?>
<!DOCTYPE svg PUBLIC "-//W3C//DTD SVG 1.1//EN" "http://www.w3.org/Graphics/SVG/1.1/DTD/svg11.dtd">
<svg version="1.1" xmlns="http://www.w3.org/2000/svg" xmlns:xlink="http://www.w3.org/1999/xlink" x="0" y="0" width="100"
     height="100" viewBox="0, 0, 100, 100">
    <g id="niztech_logo">
        <path d="M50,4.673 C75.033,4.673 95.327,24.967 95.327,50 C95.327,75.033 75.033,95.327 50,95.327 C24.967,95.327 4.673,75.033 4.673,50 C4.673,24.967 24.967,4.673 50,4.673 M50,0 C22.43,0 0,22.43 0,50 C0,77.57 22.43,100 50,100 C77.57,100 100,77.57 100,50 C100,22.43 77.57,0 50,0 L50,0 z"
              fill="#06060C"/>
        <path d="M69.466,46.021 C64.93,47.331 57.409,40.583 50,32.968 C43.072,25.563 36.176,19.633 31.633,22.866 C30.44,23.501 28.329,25.946 27.418,29.289 C26.366,32.487 26.442,36.583 26.442,37.183 C26.442,41.897 26.442,62.67 26.442,62.67 C26.442,63.203 26.576,62.271 27.141,59.98 C27.703,57.868 28.74,54.397 30.521,53.979 C35.057,52.67 42.584,59.417 49.993,67.032 C56.921,74.438 63.821,80.368 68.364,77.135 C69.557,76.5 71.611,74.055 72.522,70.712 C73.574,67.514 73.441,63.418 73.441,62.818 C73.441,58.104 73.441,37.331 73.441,37.331 C73.441,36.798 73.365,37.73 72.8,40.021 C72.239,42.132 71.247,45.603 69.466,46.021 z"
              fill="#06060C"/>
    </g>
</svg>
